resources/haticons/SVG/rtt.svg

<!-- Generated by IcoMoon.io -->
<svg version="1.1" xmlns="http://www.w3.org/2000/svg" width="24" height="24" viewBox="0 0 24 24">
<title>rtt</title>
<path d="M8.953 12.984l-0.328 2.016h-6l0.328-2.016h6zM8.297 17.016l-0.281 1.969h-6l0.281-1.969h6zM7.406 9l-0.328 2.016h-3.984l0.281-2.016h4.031zM8.016 5.016l-0.328 1.969h-3.984l0.281-1.969h4.031zM9.047 3h12.938l-1.078 7.078h-2.672l0.703-4.5h-2.578l-1.969 12.844h2.344l-0.422 2.578h-7.266l0.422-2.578h2.344l2.016-12.844h-2.578l-0.703 4.5h-2.625z"></path>
</svg>

<svg xmlns="http://www.w3.org/2000/svg" width="24" height="24"><path d="M8.953 12.984L8.625 15h-6l.328-2.016h6zm-.656 4.032l-.281 1.969h-6l.281-1.969h6zM7.406 9l-.328 2.016H3.094L3.375 9h4.031zm.61-3.984l-.328 1.969H3.704l.281-1.969h4.031zM9.047 3h12.938l-1.078 7.078h-2.672l.703-4.5H16.36l-1.969 12.844h2.344L16.313 21H9.047l.422-2.578h2.344l2.016-12.844h-2.578l-.703 4.5H7.923z"/></svg>
